packages/core/src/svgs/tokens/mono/MANA.svg

<svg width="24" height="24" viewBox="0 0 24 24" fill="none" xmlns="http://www.w3.org/2000/svg">
<path d="M8.89453 6.29199V14.8537H16.2691L8.89453 6.29199Z" fill="white"/>
<path d="M2 14.8537H8.89502V6.29199L2 14.8537Z" fill="white"/>
<path d="M5.61304 19.8481C7.51944 21.1916 9.8938 21.9885 12.4624 21.9885C15.031 21.9885 17.4053 21.1916 19.3118 19.8481H5.61304Z" fill="white"/>
<path d="M2 14.854C2.35595 15.6183 2.80245 16.3368 3.32992 16.9944H16.3664V14.854H2Z" fill="white"/>
<path d="M16.7659 12V18.4214H21.9999L16.7659 12Z" fill="white"/>
<path d="M11.5376 18.4214H16.7658V12L11.5376 18.4214Z" fill="white"/>
<path d="M16.7659 9.43165C17.5229 9.43165 18.2488 9.131 18.784 8.59577C19.3192 8.06055 19.6199 7.33454 19.6199 6.57771C19.6199 5.82081 19.3192 5.09492 18.784 4.55971C18.2488 4.0245 17.5229 3.72381 16.7659 3.72381C16.0091 3.72381 15.2833 4.0245 14.7481 4.55971C14.2128 5.09492 13.9122 5.82081 13.9122 6.57771C13.9122 7.33454 14.2128 8.06055 14.7481 8.59577C15.2833 9.131 16.0091 9.43165 16.7659 9.43165ZM8.89498 4.86538C9.27346 4.86538 9.63639 4.71503 9.90392 4.44744C10.1716 4.17983 10.3219 3.81687 10.3219 3.43844C10.3219 3.05998 10.1716 2.69703 9.90392 2.42943C9.63639 2.16182 9.27346 2.01147 8.89498 2.01147C8.51653 2.01147 8.15357 2.16182 7.88596 2.42943C7.61836 2.69703 7.46802 3.05998 7.46802 3.43844C7.46802 3.81687 7.61836 4.17983 7.88596 4.44744C8.15357 4.71503 8.51653 4.86538 8.89498 4.86538Z" fill="white"/>
</svg>

<svg xmlns="http://www.w3.org/2000/svg" width="24" height="24" fill="none" viewBox="0 0 24 24">
    <path fill="#fff" d="M8.895 6.292v8.562h7.374zM2 14.854h6.895V6.292zm3.613 4.994c1.906 1.344 4.28 2.14 6.85 2.14 2.568 0 4.942-.796 6.849-2.14zM2 14.854c.356.764.802 1.483 1.33 2.14h13.036v-2.14zM16.766 12v6.421H22z"/>
    <path fill="#fff" d="M11.538 18.421h5.228V12zm5.228-8.989a2.854 2.854 0 1 0 0-5.708 2.854 2.854 0 0 0 0 5.708M8.895 4.865a1.427 1.427 0 1 0 0-2.853 1.427 1.427 0 0 0 0 2.853"/>
</svg>
